icons/1_Primary/Name.com.svg

<svg width="1024" height="1024" viewBox="0 0 1024 1024" fill="none" xmlns="http://www.w3.org/2000/svg">
<g clip-path="url(#clip0_2_2862)">
<path d="M512 1024C794.77 1024 1024 794.77 1024 512C1024 229.23 794.77 0 512 0C229.23 0 0 229.23 0 512C0 794.77 229.23 1024 512 1024Z" fill="#98DC9A"/>
<path d="M610.42 548.62V538.1C610.42 490.76 610.86 443.42 609.98 396.1C609.1 364.98 591.57 348.32 560.45 346.1C558.7 346.1 556.94 345.66 555.63 345.66V322.88H693.27V344.36C683.19 347.43 673.11 349.62 664.78 354C651.19 361 645.49 374.16 643.78 388.63C642.52 398.954 641.925 409.349 642 419.75V688.45C642 691.96 644.19 697.22 637.62 698.09C631.05 698.96 625.35 704.67 618.77 697.65C596.85 674.42 574.5 651.19 552.58 627.95C524.09 598.14 495.58 568.34 467.58 538.53L407 475.42C399.55 467.97 392.53 459.64 384.21 450.87C383.889 453.487 383.742 456.123 383.77 458.76C383.77 510.48 383.33 562.65 383.77 614.37C383.77 629.71 387.28 645.05 398.24 656.89C407.45 667.41 420.6 670.89 434.18 672.23C436.493 672.608 438.838 672.755 441.18 672.67V695H301.39V674C309.72 671.37 318.05 670.05 325.5 666.11C336.5 660.41 342.16 650.33 344.79 638.49C346.915 630.037 347.947 621.346 347.86 612.63C348.3 532.41 347.86 451.76 347.86 371.54C347.86 360.14 344.79 354.88 333.39 351.81C320.68 348.74 307.09 347.43 293.5 345.23V321.56H301.39C329.883 322 358.377 322 386.87 321.56C396.08 321.12 402.21 324.19 408.35 331.2C419.35 343.91 431.58 356.62 442.98 368.9C473.66 401.34 503.91 434.21 534.59 466.65C554.75 488.13 574.92 509.65 594.64 531.52C599.46 536.34 604.28 541.6 610.42 548.62ZM696.34 660C696.427 651.697 698.968 643.605 703.645 636.743C708.321 629.881 714.923 624.556 722.619 621.438C730.316 618.321 738.762 617.55 746.896 619.223C755.029 620.896 762.486 624.938 768.327 630.84C774.168 636.742 778.132 644.241 779.721 652.391C781.309 660.542 780.45 668.98 777.253 676.643C774.056 684.307 768.662 690.853 761.752 695.458C754.842 700.062 746.724 702.52 738.42 702.52C727.398 702.449 716.848 698.039 709.054 690.246C701.261 682.452 696.851 671.902 696.78 660.88C696.34 660.44 696.34 660.44 696.34 660Z" fill="white"/>
</g>
<defs>
<clipPath id="clip0_2_2862">
<rect width="1024" height="1024" fill="white"/>
</clipPath>
</defs>
</svg>

<svg xmlns="http://www.w3.org/2000/svg" viewBox="0 0 1024 1024">
   <circle cx="512" cy="512" r="512" style="fill:#6eda78"/>
   <path d="M610.42 548.62V538.1c0-47.34.44-94.68-.44-142-.88-31.12-18.41-47.78-49.53-50-1.75 0-3.51-.44-4.82-.44v-22.78h137.64v21.48c-10.08 3.07-20.16 5.26-28.49 9.64-13.59 7-19.29 20.16-21 34.63a242.37 242.37 0 0 0-1.78 31.12v268.7c0 3.51 2.19 8.77-4.38 9.64s-12.27 6.58-18.85-.44c-21.92-23.23-44.27-46.46-66.19-69.7-28.49-29.81-57-59.61-85-89.42L407 475.42c-7.45-7.45-14.47-15.78-22.79-24.55a59.48 59.48 0 0 0-.44 7.89c0 51.72-.44 103.89 0 155.61 0 15.34 3.51 30.68 14.47 42.52 9.21 10.52 22.36 14 35.94 15.34a35.43 35.43 0 0 0 7 .44V695H301.39v-21c8.33-2.63 16.66-3.95 24.11-7.89 11-5.7 16.66-15.78 19.29-27.62a101.89 101.89 0 0 0 3.07-25.86c.44-80.22 0-160.87 0-241.09 0-11.4-3.07-16.66-14.47-19.73-12.71-3.07-26.3-4.38-39.89-6.58v-23.67h7.89q42.74.66 85.48 0c9.21-.44 15.34 2.63 21.48 9.64 11 12.71 23.23 25.42 34.63 37.7 30.68 32.44 60.93 65.31 91.61 97.75 20.16 21.48 40.33 43 60.05 64.87 4.82 4.82 9.64 10.08 15.78 17.1zM696.34 660a42.08 42.08 0 1 1 42.08 42.52 41.91 41.91 0 0 1-41.64-41.64c-.44-.44-.44-.44-.44-.88z" style="fill:#fff"/>
</svg>
